MODULE Module1        CONST robtarget Target_130:=[[100.000011963,-250.000018925,399.999968915],[0.000000014,0.707106776,0.707106787,0.000000006],[-1,0,0,0],[0,9E+09,9E+09,9E+09,9E+09,9E+09]];    CONST robtarget start1:=[[100,-50,400],[0,0.707106781,0.707106781,0],[-1,0,0,0],[0,9E+09,9E+09,9E+09,9E+09,9E+09]];    CONST robtarget Target_10:=[[100,-50,300],[0,0.707106781,0.707106781,0],[-1,0,0,0],[0,9E+09,9E+09,9E+09,9E+09,9E+09]];    CONST robtarget lift1:=[[100,-50,400],[0,0.707106781,0.707106781,0],[-1,0,0,0],[0,9E+09,9E+09,9E+09,9E+09,9E+09]];    CONST robtarget start2:=[[100,-150,400],[0,0.707106781,0.707106781,0],[-1,0,0,0],[0,9E+09,9E+09,9E+09,9E+09,9E+09]];    CONST robtarget Target_20:=[[100,-150,300],[0,0.707106781,0.707106781,0],[-1,0,0,0],[0,9E+09,9E+09,9E+09,9E+09,9E+09]];    CONST robtarget lift2:=[[100,-150,400],[0,0.707106781,0.707106781,0],[-1,0,0,0],[0,9E+09,9E+09,9E+09,9E+09,9E+09]];    CONST robtarget standbyToStart1:=[[100,50,400],[0,0.707106781,0.707106781,0],[-1,0,0,0],[0,9E+09,9E+09,9E+09,9E+09,9E+09]];    CONST robtarget start3:=[[200,50,300],[0.5,0.5,0.5,-0.5],[-1,-2,1,0],[0,9E+09,9E+09,9E+09,9E+09,9E+09]];    CONST robtarget Target_30:=[[200,-50,300],[0.5,0.5,0.5,-0.5],[-1,-2,1,0],[0,9E+09,9E+09,9E+09,9E+09,9E+09]];    CONST robtarget pull3:=[[200,50,300],[0.5,0.5,0.5,-0.5],[-1,-2,1,0],[0,9E+09,9E+09,9E+09,9E+09,9E+09]];    CONST robtarget standbyToEnd1:=[[100,50,400],[0,0.707106781,0.707106781,0],[-1,0,0,0],[0,9E+09,9E+09,9E+09,9E+09,9E+09]];    CONST robtarget Target_140:=[[552.545588746,-250.000018925,399.999968915],[0.000000014,0.707106776,0.707106787,0.000000006],[-1,0,0,0][418.88,9E+09,9E+09,9E+09,9E+09,9E+09]];    CONST robtarget start4:=[[550,-50,400],[0,0.707106781,0.707106781,0],[-1,0,0,0],[418.88,9E+09,9E+09,9E+09,9E+09,9E+09]];    CONST robtarget Target_40:=[[550,-50,300],[0,0.707106781,0.707106781,0],[-1,0,0,0],[418.88,9E+09,9E+09,9E+09,9E+09,9E+09]];    CONST robtarget lift4:=[[550,-50,400],[0,0.707106781,0.707106781,0],[-1,0,0,0],[418.88,9E+09,9E+09,9E+09,9E+09,9E+09]];    CONST robtarget start5:=[[550,-150,400],[0,0.707106781,0.707106781,0],[-1,0,0,0],[418.88,9E+09,9E+09,9E+09,9E+09,9E+09]];    CONST robtarget Target_50:=[[550,-150,300],[0,0.707106781,0.707106781,0],[-1,0,0,0],[418.88,9E+09,9E+09,9E+09,9E+09,9E+09]];    CONST robtarget lift5:=[[550,-150,400],[0,0.707106781,0.707106781,0],[-1,0,0,0],[418.88,9E+09,9E+09,9E+09,9E+09,9E+09]];    CONST robtarget start6:=[[1000,-150,400],[0,0.707106781,0.707106781,0],[-1,0,0,0],[802.85,9E+09,9E+09,9E+09,9E+09,9E+09]];    CONST robtarget Target_60:=[[1000,-150,300],[0,0.707106781,0.707106781,0],[-1,0,0,0],[802.85,9E+09,9E+09,9E+09,9E+09,9E+09]];    CONST robtarget lift6:=[[1000,-150,400],[0,0.707106781,0.707106781,0],[-1,0,0,0],[802.85,9E+09,9E+09,9E+09,9E+09,9E+09]];    CONST robtarget start7:=[[1000,-50,400],[0,0.707106781,0.707106781,0],[-1,0,0,0],[802.85,9E+09,9E+09,9E+09,9E+09,9E+09]];    CONST robtarget Target_70:=[[1000,-50,300],[0,0.707106781,0.707106781,0],[-1,0,0,0],[802.85,9E+09,9E+09,9E+09,9E+09,9E+09]];    CONST robtarget lift7:=[[1000,-50,400],[0,0.707106781,0.707106781,0],[-1,0,0,0],[802.85,9E+09,9E+09,9E+09,9E+09,9E+09]];    CONST robtarget start8:=[[1450,-50,400],[0,0.707106781,0.707106781,0],[-1,0,0,0],[1309,9E+09,9E+09,9E+09,9E+09,9E+09]];    CONST robtarget Target_80:=[[1450,-50,300],[0,0.707106781,0.707106781,0],[-1,0,0,0],[1309,9E+09,9E+09,9E+09,9E+09,9E+09]];    CONST robtarget lift8:=[[1450,-50,400],[0,0.707106781,0.707106781,0],[-1,0,0,0],[1309,9E+09,9E+09,9E+09,9E+09,9E+09]];    CONST robtarget start9:=[[1450,-150,400],[0,0.707106781,0.707106781,0],[-1,0,0,0],[1309,9E+09,9E+09,9E+09,9E+09,9E+09]];    CONST robtarget Target_90:=[[1450,-150,300],[0,0.707106781,0.707106781,0],[-1,0,0,0],[1309,9E+09,9E+09,9E+09,9E+09,9E+09]];    CONST robtarget lift9:=[[1450,-150,400],[0,0.707106781,0.707106781,0],[-1,0,0,0],[1309,9E+09,9E+09,9E+09,9E+09,9E+09]];    CONST robtarget start10:=[[1900,-150,400],[0,0.707106781,0.707106781,0],[-1,0,0,0],[1692.97,9E+09,9E+09,9E+09,9E+09,9E+09]];    CONST robtarget Target_100:=[[1900,-150,300],[0,0.707106781,0.707106781,0],[-1,0,0,0],[1692.97,9E+09,9E+09,9E+09,9E+09,9E+09]];    CONST robtarget lift10:=[[1900,-150,400],[0,0.707106781,0.707106781,0],[-1,0,0,0],[1692.97,9E+09,9E+09,9E+09,9E+09,9E+09]];    CONST robtarget start11:=[[1900,-50,400],[0,0.707106781,0.707106781,0],[-1,0,0,0],[1692.97,9E+09,9E+09,9E+09,9E+09,9E+09]];    CONST robtarget Target_110:=[[1900,-50,300],[0,0.707106781,0.707106781,0],[-1,0,0,0],[1692.97,9E+09,9E+09,9E+09,9E+09,9E+09]];    CONST robtarget lift11:=[[1900,-50,400],[0,0.707106781,0.707106781,0],[-1,0,0,0],[1692.97,9E+09,9E+09,9E+09,9E+09,9E+09]];    CONST robtarget standbytoStart2:=[[1900,50,400],[0,0.707106781,0.707106781,0],[-1,0,0,0],[1692.97,9E+09,9E+09,9E+09,9E+09,9E+09]];    CONST robtarget start12:=[[1800,50,300],[0.5,0.5,0.5,-0.5],[-1,-2,1,0],[1518.44,9E+09,9E+09,9E+09,9E+09,9E+09]];    CONST robtarget Target_120:=[[1800,-50,300],[0.5,0.5,0.5,-0.5],[-1,-2,1,0],[1692.97,9E+09,9E+09,9E+09,9E+09,9E+09]];    CONST robtarget pull12:=[[1800,50,300],[0.5,0.5,0.5,-0.5],[-1,-2,1,0],[1518.44,9E+09,9E+09,9E+09,9E+09,9E+09]];    CONST robtarget standbytoEnd2:=[[1900,50,400],[0,0.707106781,0.707106781,0],[-1,0,0,0],[1692.97,9E+09,9E+09,9E+09,9E+09,9E+09]];    CONST robtarget Target_150:=[[-531.723130631,-406.000012107,-299.000005122],[0,0.500000001,0,0.866025403],[0,-1,0,0],[0,9E+09,9E+09,9E+09,9E+09,9E+09]];!***********************************************************    !    ! Module:  Module1    !    ! Description:    !   <Insert description here>    !    ! Author: adityaaaap    !    ! Version: 1.0    !    !***********************************************************            !***********************************************************    !    ! Procedure main    !    !   This is the entry point of your program    !    !***********************************************************    PROC main()        !Add your code here        Path_10;    ENDPROC    PROC Path_10()        MoveL start2,v100,z10,Drill\WObj:=Task4;        MoveL Target_20,v100,z10,Drill\WObj:=Task4;        MoveL lift2,v100,z10,Drill\WObj:=Task4;        MoveL start1,v100,z10,Drill\WObj:=Task4;        MoveL Target_10,v100,z10,Drill\WObj:=Task4;        MoveL lift1,v100,z10,Drill\WObj:=Task4;        MoveL standbyToStart1,v100,z10,Drill\WObj:=Task4;        MoveL start3,v100,z10,Drill\WObj:=Task4;        MoveL Target_30,v100,z10,Drill\WObj:=Task4;        MoveL pull3,v100,z10,Drill\WObj:=Task4;        MoveL standbyToEnd1,v100,z10,Drill\WObj:=Task4;        MoveL Target_140,v100,z10,Drill\WObj:=wobj0;        MoveL start4,v100,z10,Drill\WObj:=Task4;        MoveL Target_40,v100,z10,Drill\WObj:=Task4;        MoveL lift4,v100,z10,Drill\WObj:=Task4;        MoveL start5,v100,z10,Drill\WObj:=Task4;        MoveL Target_50,v100,z10,Drill\WObj:=Task4;        MoveL lift5,v100,z10,Drill\WObj:=Task4;        MoveL start6,v100,z10,Drill\WObj:=Task4;        MoveL Target_60,v100,z10,Drill\WObj:=Task4;        MoveL lift6,v100,z10,Drill\WObj:=Task4;        MoveL start7,v100,z10,Drill\WObj:=Task4;        MoveL Target_70,v100,z10,Drill\WObj:=Task4;        MoveL lift7,v100,z10,Drill\WObj:=Task4;        MoveL start8,v100,z10,Drill\WObj:=Task4;        MoveL Target_80,v100,z10,Drill\WObj:=Task4;        MoveL lift8,v100,z10,Drill\WObj:=Task4;        MoveL start9,v100,z10,Drill\WObj:=Task4;        MoveL Target_90,v100,z10,Drill\WObj:=Task4;        MoveL lift9,v100,z10,Drill\WObj:=Task4;        MoveL start10,v100,z10,Drill\WObj:=Task4;        MoveL Target_100,v100,z10,Drill\WObj:=Task4;        MoveL lift10,v100,z10,Drill\WObj:=Task4;        MoveL start11,v100,z10,Drill\WObj:=Task4;        MoveL Target_110,v100,z10,Drill\WObj:=Task4;        MoveL lift11,v100,z10,Drill\WObj:=Task4;        MoveL standbytoStart2,v100,z10,Drill\WObj:=Task4;        MoveL start12,v100,z10,Drill\WObj:=Task4;        MoveL Target_120,v100,z10,Drill\WObj:=Task4;        MoveL pull12,v100,z10,Drill\WObj:=Task4;        MoveL standbytoEnd2,v100,z10,Drill\WObj:=Task4;        MoveL Target_130,v100,z10,Drill\WObj:=wobj0;        MoveL Target_150,v100,z10,Drill\WObj:=LegSupport;    ENDPROCENDMODULE